packages/icons/src/person-minus.svg

<svg xmlns="http://www.w3.org/2000/svg" width="24" height="24" fill="none" viewBox="0 0 24 24">
  <path fill="#000" d="M14 8c0-2.21-1.79-4-4-4S6 5.79 6 8s1.79 4 4 4 4-1.79 4-4Zm-2 0c0 1.1-.9 2-2 2s-2-.9-2-2 .9-2 2-2 2 .9 2 2ZM2 18v2h16v-2c0-2.66-5.33-4-8-4s-8 1.34-8 4Zm2 0c.2-.71 3.3-2 6-2 2.69 0 5.77 1.28 6 2H4Zm19-8h-6v2h6v-2Z"/>
</svg>

<svg width="24" height="24" viewBox="0 0 24 24" fill="none" xmlns="http://www.w3.org/2000/svg">
<path d="M14 8C14 5.79 12.21 4 10 4C7.79 4 6 5.79 6 8C6 10.21 7.79 12 10 12C12.21 12 14 10.21 14 8ZM12 8C12 9.1 11.1 10 10 10C8.9 10 8 9.1 8 8C8 6.9 8.9 6 10 6C11.1 6 12 6.9 12 8Z" fill="black"/>
<path d="M2 18V20H18V18C18 15.34 12.67 14 10 14C7.33 14 2 15.34 2 18ZM4 18C4.2 17.29 7.3 16 10 16C12.69 16 15.77 17.28 16 18H4Z" fill="black"/>
<path d="M23 10H17V12H23V10Z" fill="black"/>
</svg>
